X:5
T:Creignish Hills
R:reel
C:Rev. Hugh A. MacDonald
D:Andrea Beaton, The Tap Session
O:20th century Cape Breton
Z:Paul Stewart Cranford (P.S.C.), <http://www.cranfordpub.com>
L:1/8
M:C|
K:Ador
Q:333
egfd e2 dB|deBd ABGB|egfd e2 dB|gedB A/A/A AB|
(e/f/g) fd e2 dB|deBd ABGA|BABd edeb|gedB A/A/A||
||ea|eAed BAAB|d2 ed BGGa|eAed BAAB|dGdB A/A/A AB|
eAed BAAB|d2 ed BGGB|egfd e2 dB|gedB A/A/A AB|]
